X:119
T: Moench und Naehterin
N: A0481
O: Europa, Mitteleuropa, Deutschland
N: Schmeltzel 1544 Quodl 20.
R: Romanze, Ballade, Lied
M: 6/4
L: 1/4
K: F
F | F2GA2A | B2GA2
A | B2cd2d | c3B2
c | c2cc2A | BdcA2
A | G2ABAB | G3F2

